X: 039
T: Flying Squirrel (polka)
N: 060196
C: BB
R: polka
Q: 300
M: 2/4
L: 1/8
K: G
"G"D>EGA |"Em"Bd "D"A2|"G"Bd"Am"Ac |"G"BA"Em"GE|
"G"D>EGA |"Em"Bd "Am"A>B|"D7"cAFA |"G"G2 G2 :|
"G"gdgd| b>age|"D"fdfd|a>gfd|
"C"ecec| "G"dBdB|"D7"cAFA|"G"G2 G2 :|
%%%%%%%%%%%%%%%%%%%%%%%%%%%%%%%%%%%%%%%%%%%
